!!!!SEGMENT: pl-cz--iii-47--001-002-pc0_bulakowski-stefan--msza-as-gloria-pc0.krn
!!!cenid: 18xx:693a
!!!COM: Bułakowski, Stefan
!!!COM-rismID: pe30085804
!!!CDT: 1784-1852
!!!CNT: Polish
!!!OPR: Msza As
!!!OTL: Gloria
!!!OMV: 002
!!!PDT:
!!!AGN: Sacred; Mass
!!!YEC: Copyright 2022 Narodowy Instytut Fryderyka Chopina (https://polishscores.org)
!!!YEM: License CC-BY-4.0 (https://creativecommons.org/licenses/by/4.0)
!!!SMS-siglum: PL-CZ
!!!SMS-shelfmark: III-47
!!!SMS-shelfwork: 001-002 M
!!!SMS-variant:
!!!SMS-altvar:
!!!NIFC-rismSourceID: 300000053
!!!NIFC-rismChildID: 300000053
!!!NIFC-islandoraID: pl-cz:38687
!!!URL-pdf-islandora: https://repozytorium.nifc.pl/islandora/object/pl-cz%3A38687/datastream/PDF/view
!!!URL-scan: https://polish.musicsources.pl/pl/lokalizacje/galeria/rekopisy/6939/1 @EN{Scan on Polish Music Sources Website} @PL{Skany w portalu Dziedzictwo Muzyki Polskiej w otwartym dostępie}
!!!IIIF:
!!!ONB-nifc: UWAGA: części Mszy: Kyrie, Gloria, Justus ut palma, Credo, Et incarnatus, Et resurrexit,
!!!AIN: 2 clars 2 cor 1 empty 2 fagot 2 tenor 1 tromt
!!!key:
**kern	**text	**dynam	**kern	**text	**dynam	**kern	**text	**dynam	**kern	**dynam	**kern	**dynam	**kern	**dynam	**kern	**dynam	**kern	**dynam	**kern	**dynam	**kern	**dynam
*group3	*	*	*group3	*	*	*group3	*	*	*group2	*	*group2	*	*group2	*	*group1	*	*group1	*	*group1	*	*group1	*
*part10	*	*	*part9	*	*	*part8	*	*	*part7	*	*part6	*	*part5	*	*part4	*	*part3	*	*part2	*	*part1	*
*staff10	*	*	*staff9	*	*	*staff8	*	*	*staff7	*	*staff6	*	*staff5	*	*staff4	*	*staff3	*	*staff2	*	*staff1	*
*Iempty	*	*	*Itenor	*	*	*Itenor	*	*	*Itromt	*	*Icor	*	*Icor	*	*Ifagot	*	*Ifagot	*	*Iclars	*	*Iclars	*
*I"Baſso.	*	*	*I"Tenore 2do	*	*	*I"Tenore 1mo	*	*	*I"Trombone.	*	*I"Corno. 2do in as.	*	*I"Corno 1mo in as.	*	*I"Fagotto. 2do	*	*I"Fagotto 1mo	*	*I"Clarinetto. 2do in B.	*	*I"Clarinetto. 1mo in B.	*
*I'B	*	*	*I'T 2	*	*	*I'T 1	*	*	*I'tr	*	*I'cor 2	*	*I'cor 1	*	*I'fag 2	*	*I'fag 1	*	*I'cl 2	*	*I'cl 1	*
*clefF4	*	*	*clefC4	*	*	*clefC4	*	*	*clefF4	*	*clefG2	*	*clefG2	*	*clefF4	*	*clefF4	*	*clefG2	*	*clefG2	*
*	*	*	*	*	*	*	*	*	*	*	*ITrd5c9	*	*ITrd5c9	*	*	*	*	*	*ITrd1c2	*	*ITrd1c2	*
*k[b-e-a-]	*	*	*k[b-e-a-]	*	*	*k[b-e-a-]	*	*	*k[b-e-a-]	*	*k[b-e-a-]	*	*k[b-e-a-]	*	*k[b-e-a-]	*	*k[b-e-a-]	*	*k[b-e-a-]	*	*k[b-e-a-]	*
*E-:	*	*	*E-:	*	*	*E-:	*	*	*E-:	*	*E-:	*	*E-:	*	*E-:	*	*E-:	*	*E-:	*	*E-:	*
*M4/4	*	*	*M4/4	*	*	*M4/4	*	*	*M4/4	*	*M4/4	*	*M4/4	*	*M4/4	*	*M4/4	*	*M4/4	*	*M4/4	*
*met(c)	*	*	*met(c)	*	*	*met(c)	*	*	*met(c)	*	*met(c)	*	*met(c)	*	*met(c)	*	*met(c)	*	*met(c)	*	*met(c)	*
=1	=1	=1	=1	=1	=1	=1	=1	=1	=1	=1	=1	=1	=1	=1	=1	=1	=1	=1	=1	=1	=1	=1
*2\right	*	*	*2\right	*	*	*2\right	*	*	*2\right	*	*2\right	*	*2\right	*	*2\right	*	*2\right	*	*2\right	*	*2\right	*
!	!	!	!	!	!	!	!	!	!	!	!LO:TX:a:i:t=allegro in Es.	!	!	!	!	!	!	!	!	!	!	!
!LO:TX:a:i:t=Allegro.	!	!	!LO:TX:a:i:t=Allegro.	!	!	!LO:TX:a:i:t=Allegro.	!	!	!LO:TX:a:i:t=Allegro.	!	!	!	!	!	!LO:TX:a:i:t=Allegro.	!	!LO:TX:a:i:t=Allegro.	!	!LO:TX:a:i:t=allegro.	!	!LO:TX:a:i:t=Allegro.	!
!	!	!	!	!	!	!	!	!	!	!	!	!	!LO:TX:a:i:t=in Es. allegro	!	!	!	!	!	!	!	!	!
!	!	!LO:DY:rj	!	!	!	!	!	!LO:DY:rj	!	!LO:DY:rj	!	!LO:DY:rj	!	!LO:DY:rj	!	!LO:DY:rj	!	!LO:DY:rj	!	!LO:DY:rj	!	!LO:DY:rj
!	!	!LO:DY:b:t=f.	!	!	!	!	!	!LO:DY:b	!	!	!	!	!	!	!LO:DY:b	!	!LO:DY:b	!	!	!	!	!
2e-\	Glo-	f	2e-\	Glo-	f	2e-\	Glo-	f	2E-\	f	2e-\	f	2e-\	f	2E-\	f	2e-\	f	2ee-\	f	2ee-\	f
4B-\	-ri-	.	4B-\	-ri-	.	4B-\	-ri-	.	4BB-/	.	4B-/	.	4B-\	.	4B-\	.	4B-\	.	4b-\	.	4b-\	.
4G\	-a	.	4G\	-a	.	4G\	-a	.	4GG/	.	4G/	.	4G/	.	4G\	.	4G\	.	4g\	.	4g\	.
=2	=2	=2	=2	=2	=2	=2	=2	=2	=2	=2	=2	=2	=2	=2	=2	=2	=2	=2	=2	=2	=2	=2
4E-\	in	.	4E-/	in	.	4E-\	in	.	4EE-/	.	4E-/	.	4E-/	.	4EE-/	.	4E-\	.	4e-\	.	4e-\	.
4G\	ex-	.	4G/	ex-	.	4G\	ex-	.	4E-\	.	4G/	.	4e-\	.	4E-\	.	4B-\	.	4g\	.	4g\	.
4B-\	-cel-	.	4B-\	-cel-	.	4B-\	-cel-	.	4E-\	.	4G/	.	4e-\	.	4E-\	.	4B-\	.	4b-\	.	4b-\	.
4e-\	-sis	.	4e-\	-sis	.	4e-\	-sis	.	4E-\	.	4G/	.	4e-\	.	4E-\	.	4B-\	.	4ee-\	.	4ee-\	.
=3	=3	=3	=3	=3	=3	=3	=3	=3	=3	=3	=3	=3	=3	=3	=3	=3	=3	=3	=3	=3	=3	=3
4d\	De-	.	4d\	De-	.	4d\	De-	.	4BB-/	.	4B-/	.	4f\	.	4B-\	.	4d\	.	4b-\	.	4dd\	.
4B-\	-o	.	4B-\	-o	.	4B-\	-o	.	8BB-/	.	8B-/	.	8f\	.	8B-\	.	8B-\L	.	8B-/L	.	8b-\L	.
.	.	.	.	.	.	.	.	.	8r	.	8r	.	8r	.	8r	.	8An\J	.	8A/J	.	8a\J	.
2r	.	.	2r	.	.	2r	.	.	2r	.	2r	.	2r	.	2r	.	8B-\L	.	8B-/L	.	8b-\L	.
.	.	.	.	.	.	.	.	.	.	.	.	.	.	.	.	.	8c\	.	8c/	.	8cc\	.
.	.	.	.	.	.	.	.	.	.	.	.	.	.	.	.	.	8d\	.	8d/	.	8dd\	.
.	.	.	.	.	.	.	.	.	.	.	.	.	.	.	.	.	8e-\J	.	8e-/J	.	8ee-\J	.
!LO:LB:g=original	!	!	!LO:LB:g=original	!	!	!LO:LB:g=original	!	!	!	!	!	!	!	!	!	!	!	!	!	!	!	!
=4	=4	=4	=4	=4	=4	=4	=4	=4	=4	=4	=4	=4	=4	=4	=4	=4	=4	=4	=4	=4	=4	=4
2f\	Glo-	.	2f\	Glo-	.	2f\	Glo-	.	2F\	.	2f\	.	2f\	.	2F\	.	2f\	.	2f/	.	2ff\	.
4d\	-ri-	.	4d\	-ri-	.	4d\	-ri-	.	4D\	.	4d\	.	4d\	.	4d\	.	4d\	.	4dd\	.	4dd\	.
4B-\	-a	.	4B-\	-a	.	4B-\	-a	.	4BB-/	.	4B-\	.	4B-\	.	4B-\	.	4B-\	.	4b-\	.	4b-\	.
!	!	!	!	!	!	!	!	!	!	!	!	!	!	!	!LO:LB:g=original	!	!LO:LB:g=original	!	!	!	!	!
=5	=5	=5	=5	=5	=5	=5	=5	=5	=5	=5	=5	=5	=5	=5	=5	=5	=5	=5	=5	=5	=5	=5
4A-\	in	.	4A-\	in	.	4A-\	in	.	4AA-/	.	4B-/	.	4f\	.	4A-\	.	4d\	.	4a-\	.	4a-\	.
4F\	ex-	.	4F\	ex-	.	4F\	ex-	.	4AA-/	.	4B-/	.	4f\	.	4A-\	.	4d\	.	4f\	.	4f\	.
4c\	-cel-	.	4c\	-cel-	.	4c\	-cel-	.	4AA-/	.	4B-/	.	4f\	.	4A-\	.	4d\	.	4cc\	.	4cc\	.
4B-\	-sis	.	4B-\	-sis	.	4B-\	-sis	.	4AA-/	.	4B-/	.	4f\	.	4A-\	.	4d\	.	4b-\	.	4b-\	.
!	!	!	!	!	!	!	!	!	!LO:LB:g=original	!	!	!	!	!	!	!	!	!	!LO:LB:g=original	!	!	!
=6	=6	=6	=6	=6	=6	=6	=6	=6	=6	=6	=6	=6	=6	=6	=6	=6	=6	=6	=6	=6	=6	=6
4B-\	De-	.	4B-\	De-	.	4B-\	De-	.	4E-\	.	4G/	.	4e-\	.	4G\	.	4e-\	.	4g\	.	4b-\	.
4G\	-o	.	4G\	-o	.	4G\	-o	.	4E-\	.	4G/	.	4e-\	.	4E-\	.	4B-\	.	4e-\	.	4g\	.
!	!	!	!	!	!	!	!	!	!	!	!	!	!	!	!	!	!	!	!	!	!	!LO:DY:b:t=p.
!	!	!	!	!	!	!	!	!	!	!	!	!	!	!	!	!LO:DY:b:t=p.	!	!	!	!	!	!LO:DY:rj
4r	.	.	4r	.	.	4r	.	.	2r	.	2r	.	2r	.	4r	p	4r	.	4r	.	4r	p
!	!	!LO:DY:a	!	!	!LO:DY:a	!	!	!LO:DY:a	!	!	!	!	!	!	!	!	!	!	!	!	!	!
!	!	!	!	!	!	!	!	!LO:DY:rj	!	!	!	!	!	!	!	!	!	!	!	!	!	!
!	!	!LO:DY:rj	!	!	!LO:DY:rj	!	!	!	!	!	!	!	!	!	!	!	!	!LO:DY:rj	!	!	!	!
!	!	!LO:DY:a:t=p.	!	!	!LO:DY:a:t=p.	!	!	!	!	!	!	!	!	!	!	!	!	!LO:DY:b:t=p.	!	!	!	!
!	!	!	!	!	!	!	!	!	!	!	!	!	!	!	!	!	!	!	!	!LO:DY:rj	!	!
8E-\	et	p	8G\	et	p	8e-\	et	p	.	.	.	.	.	.	8G\L	.	8e-\L	p	8g\L	p	8ee-\L	.
8E-\	in	.	8B-\	in	.	8d\	in	.	.	.	.	.	.	.	8B-\J	.	8d\J	.	8b-\J	.	8dd\J	.
!	!	!	!	!	!	!	!	!	!	!	!LO:LB:g=original	!	!LO:LB:g=original	!	!	!	!	!	!	!	!LO:LB:g=original	!
=7	=7	=7	=7	=7	=7	=7	=7	=7	=7	=7	=7	=7	=7	=7	=7	=7	=7	=7	=7	=7	=7	=7
!	!	!	!	!	!	!	!	!	!	!LO:DY:rj	!	!	!	!	!	!	!	!	!	!	!	!
!	!	!	!	!	!	!	!	!	!	!	!	!LO:DY:rj	!	!LO:DY:rj	!	!	!	!	!	!	!	!
!	!	!	!	!	!	!	!	!	!	!	!	!	!	!LO:DY:b:t=p.	!	!	!	!	!	!	!	!
4E-\	ter-	.	4A-\	ter-	.	4c\	ter-	.	1E-	p	1E-	p	1e-	p	4A-\	.	4c\	.	4a-\	.	4cc\	.
4E-\	-ra	.	4A-\	-ra	.	4c\	-ra	.	.	.	.	.	.	.	4A-\	.	4c\	.	4a-\	.	4cc\	.
4E-\	pax	.	4G\	pax	.	4B-\	pax	.	.	.	.	.	.	.	4G\	.	4B-\	.	4g\	.	4b-\	.
!	!LO:MO:mod=ho-	!	!	!LO:MO:mod=ho-	!	!	!LO:MO:mod=ho-	!	!	!	!	!	!	!	!	!	!	!	!	!	!	!
4E-\	cho-	.	4F#X\	cho-	.	4An\	cho-	.	.	.	.	.	.	.	4F#X\	.	4An\	.	4f#X\	.	4a\	.
!LO:LB:g=original	!	!	!LO:LB:g=original	!	!	!LO:LB:g=original	!	!	!	!	!	!	!	!	!	!	!	!	!	!	!	!
=8	=8	=8	=8	=8	=8	=8	=8	=8	=8	=8	=8	=8	=8	=8	=8	=8	=8	=8	=8	=8	=8	=8
4.E-\	-mi-	.	4.G/	-mi-	.	4.B-\	-mi-	.	8E-\	.	4r	.	4r	.	4.G\	.	4.B-\	.	4.g\	.	4.b-\	.
.	.	.	.	.	.	.	.	.	8r	.	.	.	.	.	.	.	.	.	.	.	.	.
.	.	.	.	.	.	.	.	.	8.E-\L	.	8.G/L	.	8.e-\L	.	.	.	.	.	.	.	.	.
8E-\	-ni-	.	8E-/	-ni-	.	8G\	-ni-	.	.	.	.	.	.	.	8E-\	.	8G\	.	8e-\	.	8g\	.
.	.	.	.	.	.	.	.	.	16E-\Jk	.	16G/Jk	.	16e-\Jk	.	.	.	.	.	.	.	.	.
4E-\	-bus	.	4G/	-bus	.	4B-\	-bus	.	4E-\	.	4G/	.	4e-\	.	4G\	.	4B-\	.	4g\	.	4b-\	.
8E-\	bo-	.	8G/	bo-	.	8e-\	bo-	.	4r	.	4r	.	4r	.	8G\L	.	8e-\L	.	8g\L	.	8ee-\L	.
8E-\	-ne	.	8B-/	-ne	.	8d\	-ne	.	.	.	.	.	.	.	8B-\J	.	8d\J	.	8b-\J	.	8dd\J	.
=9	=9	=9	=9	=9	=9	=9	=9	=9	=9	=9	=9	=9	=9	=9	=9	=9	=9	=9	=9	=9	=9	=9
4E-\	bo-	.	4A-\	bo-	.	4c\	bo-	.	1E-	.	1E-	.	1e-	.	4A-\	.	4c\	.	4a-\	.	4cc\	.
4E-\	-ne	.	4A-\	-ne	.	4c\	-ne	.	.	.	.	.	.	.	4A-\	.	4c\	.	4a-\	.	4cc\	.
4E-\	vo-	.	4G\	vo-	.	4B-\	vo-	.	.	.	.	.	.	.	4G\	.	4B-\	.	4g\	.	4b-\	.
4E-\	-lun-	.	4F#X\	-lun-	.	4An\	-lun-	.	.	.	.	.	.	.	4F#X\	.	4An\	.	4f#X\	.	4a\	.
=10	=10	=10	=10	=10	=10	=10	=10	=10	=10	=10	=10	=10	=10	=10	=10	=10	=10	=10	=10	=10	=10	=10
(>4.E-\	-ta-	.	(<4.G/	-ta-	.	(>4.B-\	-ta-	.	8E-\	.	4r	.	4r	.	4.G\	.	4.B-\	.	4.g/	.	4.b-\	.
.	.	.	.	.	.	.	.	.	8r	.	.	.	.	.	.	.	.	.	.	.	.	.
.	.	.	.	.	.	.	.	.	8.E-\L	.	8.G/L	.	8.e-\L	.	.	.	.	.	.	.	.	.
8E-\)	.	.	8E-/)	.	.	8G\)	.	.	.	.	.	.	.	.	8E-\	.	8G\	.	8e-/	.	8g\	.
.	.	.	.	.	.	.	.	.	16E-\Jk	.	16G/Jk	.	16e-\Jk	.	.	.	.	.	.	.	.	.
4E-\	-tis	.	4G/	-tis	.	4B-\	-tis	.	4E-\	.	4G/	.	4e-\	.	4G\	f	4B-\	.	4g/	.	4b-\	.
!	!	!LO:DY:a	!	!	!LO:DY:a	!	!	!	!	!	!	!	!	!	!	!	!	!	!	!	!	!
!	!	!	!	!	!	!	!	!LO:DY:rj	!	!	!	!	!	!	!	!	!	!	!	!	!	!
!	!	!LO:DY:a:t=fo	!	!	!LO:DY:a:t=fo&colon;	!	!	!	!	!	!	!	!	!	!	!	!	!	!	!	!	!
!	!	!LO:DY:rj	!	!	!LO:DY:rj	!	!	!	!	!	!	!	!	!	!	!	!	!LO:DY:rj	!	!	!	!
!	!	!	!	!	!	!	!	!	!	!	!	!	!	!	!	!	!	!LO:DY:b	!	!LO:DY:rj	!	!LO:DY:rj
4E-\	lau-	f	4G/	lau-	f	4e-\	lau-	f	4r	.	4r	.	4r	.	4E-\	.	4e-\	f	4g/	f	4ee-\	f
!LO:LB:g=original	!	!	!LO:LB:g=original	!	!	!LO:LB:g=original	!	!	!	!	!	!	!	!	!	!	!	!	!	!	!	!
!	!	!	!	!	!	!	!	!	!	!	!	!	!	!	!LO:LB:g=original	!	!LO:LB:g=original	!	!	!	!	!
=11	=11	=11	=11	=11	=11	=11	=11	=11	=11	=11	=11	=11	=11	=11	=11	=11	=11	=11	=11	=11	=11	=11
*	*	*	*	*	*	*	*	*	*	*	*	*	*	*	*	*	*	*	*tremolo	*	*	*
!	!	!	!	!	!	!	!	!	!	!	!	!LO:DY:b:t=fo	!	!	!	!	!	!	!	!	!	!
!	!	!	!	!	!	!	!	!	!	!	!	!LO:DY:rj	!	!LO:DY:rj	!	!	!	!	!	!	!	!
!	!	!	!	!	!	!	!	!	!	!	!	!	!	!	!	!	!	!	!LO:TX:a:t=P:problem=laski półnut po prawej stronie	!	!	!
4D\	-da-	.	4A-\	-da-	.	4f\	-da-	.	4D\	.	2B-/	f	2f\	f	4D\	.	4D\	.	8a-\L	.	4ff\	.
.	.	.	.	.	.	.	.	.	.	.	.	.	.	.	.	.	.	.	8b-\	.	.	.
4BB-\	-mus	.	4A-\	-mus	.	4f\	-mus	.	4r	.	.	.	.	.	4BB-\	.	4BB-\	.	8a-\	.	4ff\	.
.	.	.	.	.	.	.	.	.	.	.	.	.	.	.	.	.	.	.	8b-\J	.	.	.
*	*	*	*	*	*	*	*	*	*	*	*	*	*	*	*	*	*	*	*Xtremolo	*	*	*
*	*	*	*	*	*	*	*	*	*	*	*	*	*	*	*	*	*	*	*rep	*	*	*
4D\	te	.	4A-\	te	.	4d\	te	.	4BB-/	.	4B-/	.	4f\	.	4F\	.	4F\	.	8a-\L	.	4dd\	.
.	.	.	.	.	.	.	.	.	.	.	.	.	.	.	.	.	.	.	8b-\	.	.	.
8BB-\	be-	.	8A-\	be-	.	8B-\	be-	.	4r	.	4B-/	.	4f\	.	4BB-\	.	4BB-\	.	8a-\	.	8b-\L	.
8BB-\	-ne-	.	8A-\	-ne-	.	8B-\	-ne-	.	.	.	.	.	.	.	.	.	.	.	8b-\J	.	8b-\J	.
*	*	*	*	*	*	*	*	*	*	*	*	*	*	*	*	*	*	*	*Xrep	*	*	*
!	!	!	!	!	!	!	!	!	!LO:LB:g=original	!	!	!	!	!	!	!	!	!	!LO:LB:g=original	!	!	!
=12	=12	=12	=12	=12	=12	=12	=12	=12	=12	=12	=12	=12	=12	=12	=12	=12	=12	=12	=12	=12	=12	=12
4.E-\	-di-	.	4.B-\	-di-	.	4.g\	-di-	.	4E-\	.	4G/	.	4e-\	.	4E-\	.	4E-\	.	8g/L	.	8gg\L	.
.	.	.	.	.	.	.	.	.	.	.	.	.	.	.	.	.	.	.	8e-/	.	8ee-\	.
.	.	.	.	.	.	.	.	.	8.E-\L	.	8.G/L	.	8.e-\L	.	8.E-\L	.	8.B-\L	.	8g/	.	8gg\	.
8E-\	-ci-	.	8A-\	-ci-	.	8f\	-ci-	.	.	.	.	.	.	.	.	.	.	.	8b-/J	.	8bb-\J	.
.	.	.	.	.	.	.	.	.	16E-\Jk	.	16G/Jk	.	16e-\Jk	.	16E-\Jk	.	16B-\Jk	.	.	.	.	.
4E-\	-mus	.	4G\	-mus	.	4e-\	-mus	.	4E-\	.	4G/	.	4e-\	.	4E-\	.	4B-\	.	8a-/L	.	8aa-\L	.
.	.	.	.	.	.	.	.	.	.	.	.	.	.	.	.	.	.	.	8g/	.	8gg\	.
8E-\	te	.	8G\	te	.	8e-\	te	.	4E-\	.	4G/	.	4e-\	.	4E-\	.	4B-\	.	8f/	.	8ff\	.
8E-\	glo-	.	8G\	glo-	.	8e-\	glo-	.	.	.	.	.	.	.	.	.	.	.	8e-/J	.	8ee-\J	.
=13	=13	=13	=13	=13	=13	=13	=13	=13	=13	=13	=13	=13	=13	=13	=13	=13	=13	=13	=13	=13	=13	=13
*	*	*	*	*	*	*	*	*	*	*	*	*	*	*	*	*	*	*	*tremolo	*	*	*
!	!	!	!	!	!	!	!	!	!	!	!	!	!	!	!	!	!	!	!LO:TX:a:t=P:problem=laski półnut po prawej stronie	!	!	!
4BB-/	-ri-	.	4A-\	-ri-	.	4f\	-ri-	.	4D\	.	2B-/	.	2f\	.	4D\	.	4D\	.	8a-\L	.	4ff\	.
.	.	.	.	.	.	.	.	.	.	.	.	.	.	.	.	.	.	.	8b-\	.	.	.
4BB-/	-fi-	.	4A-\	-fi-	.	4f\	-fi-	.	4r	.	.	.	.	.	4BB-\	.	4BB-\	.	8a-\	.	4ff\	.
.	.	.	.	.	.	.	.	.	.	.	.	.	.	.	.	.	.	.	8b-\J	.	.	.
*	*	*	*	*	*	*	*	*	*	*	*	*	*	*	*	*	*	*	*Xtremolo	*	*	*
*	*	*	*	*	*	*	*	*	*	*	*	*	*	*	*	*	*	*	*rep	*	*	*
4BB-/	-ca-	.	4A-\	-ca-	.	(>8e-\L	-ca-	.	4BB-/	.	4B-/	.	4g\	.	4F\	.	4F\	.	8a-\L	.	8ee-\L	.
.	.	.	.	.	.	8d\J)	.	.	.	.	.	.	.	.	.	.	.	.	8b-\	.	8dd\J	.
4BB-/	-mus	.	4A-\	-mus	.	(>8c\L	-mus	.	4r	.	4B-/	.	4f\	.	4BB-\	.	4BB-\	.	8a-\	.	8cc\L	.
.	.	.	.	.	.	8B-\J)	.	.	.	.	.	.	.	.	.	.	.	.	8b-\J	.	8b-\J	.
*	*	*	*	*	*	*	*	*	*	*	*	*	*	*	*	*	*	*	*Xrep	*	*	*
!LO:LB:g=original	!	!	!	!	!	!LO:LB:g=original	!	!	!	!	!	!	!LO:LB:g=original	!	!	!	!	!	!	!	!LO:LB:g=original	!
=14	=14	=14	=14	=14	=14	=14	=14	=14	=14	=14	=14	=14	=14	=14	=14	=14	=14	=14	=14	=14	=14	=14
4E-\	te	.	4G\	te	.	4e-\	te	.	4E-\	.	4G/	.	4e-\	.	4E-\	.	4E-\	.	8g/L	.	8ee-\L	.
.	.	.	.	.	.	.	.	.	.	.	.	.	.	.	.	.	.	.	8f/	.	8ff\	.
4r	.	.	4r	.	.	4r	.	.	4r	.	4r	.	4r	.	4r	.	4r	.	8g/	.	8gg\	.
.	.	.	.	.	.	.	.	.	.	.	.	.	.	.	.	.	.	.	8a-/J	.	8aa-\J	.
2r	.	.	2r	.	.	2r	.	.	2r	.	2r	.	2r	.	2r	.	2r	.	8b-/L	.	8bb-\L	.
.	.	.	.	.	.	.	.	.	.	.	.	.	.	.	.	.	.	.	8g/	.	8gg\	.
.	.	.	.	.	.	.	.	.	.	.	.	.	.	.	.	.	.	.	8e-/	.	8ee-\	.
.	.	.	.	.	.	.	.	.	.	.	.	.	.	.	.	.	.	.	8d/J	.	8dd\J	.
!	!	!	!LO:PB:g=original	!	!	!	!	!	!	!	!LO:LB:g=original	!	!	!	!	!	!	!	!	!	!	!
=15	=15	=15	=15	=15	=15	=15	=15	=15	=15	=15	=15	=15	=15	=15	=15	=15	=15	=15	=15	=15	=15	=15
!	!	!	!	!	!	!	!	!	!LO:TX:a:t=4	!	!LO:TX:a:t=4	!	!LO:TX:a:t=4.	!	!	!	!	!	!	!	!	!
8A-\	te	.	8c\	te	.	8c\	te	.	00r	.	00r	.	00r	.	2A-\	.	2c\	.	2cc\	.	2cc\	.
8A-\	glo-	.	8c\	glo-	.	8c\	glo-	.	.	.	.	.	.	.	.	.	.	.	.	.	.	.
8A-\	-ri-	.	8c\	-ri-	.	8c\	-ri-	.	.	.	.	.	.	.	.	.	.	.	.	.	.	.
8A-\	-fi-	.	8c\	-fi-	.	8c\	-fi-	.	.	.	.	.	.	.	.	.	.	.	.	.	.	.
4G\	-ca-	.	4B-\	-ca-	.	4d\	-ca-	.	.	.	.	.	.	.	2G\	.	2B-\	.	2b-\	.	4dd\	.
4G\	-mus	.	4B-\	-mus	.	4en\	-mus	.	.	.	.	.	.	.	.	.	.	.	.	.	4eeX\	.
=16	=16	=16	=16	=16	=16	=16	=16	=16	=16	=16	=16	=16	=16	=16	=16	=16	=16	=16	=16	=16	=16	=16
4F\	te	.	4A-\	te	.	4f\	te	.	.	.	.	.	.	.	2F\	.	2A-\	.	4a-\	.	8ff\L	.
.	.	.	.	.	.	.	.	.	.	.	.	.	.	.	.	.	.	.	.	.	8cc\	.
4r	.	.	4r	.	.	4r	.	.	.	.	.	.	.	.	.	.	.	.	8a-\L	.	8aa-\	.
.	.	.	.	.	.	.	.	.	.	.	.	.	.	.	.	.	.	.	8g\J	.	8gg\J	.
2r	.	.	2r	.	.	2r	.	.	.	.	.	.	.	.	2r	.	2r	.	8f/L	.	8ff\L	.
.	.	.	.	.	.	.	.	.	.	.	.	.	.	.	.	.	.	.	8e-/	.	8ee-\	.
.	.	.	.	.	.	.	.	.	.	.	.	.	.	.	.	.	.	.	8d/	.	8dd\	.
.	.	.	.	.	.	.	.	.	.	.	.	.	.	.	.	.	.	.	8c/J	.	8cc\J	.
!LO:PB:g=original	!	!	!	!	!	!LO:LB:g=original	!	!	!	!	!	!	!	!	!	!	!	!	!	!	!	!
=17	=17	=17	=17	=17	=17	=17	=17	=17	=17	=17	=17	=17	=17	=17	=17	=17	=17	=17	=17	=17	=17	=17
8G\	te	.	8B-\	te	.	8B-\	te	.	.	.	.	.	.	.	2G\	.	2B-\	.	2B-/	.	2b-\	.
8G\	glo-	.	8B-\	glo-	.	8B-\	glo-	.	.	.	.	.	.	.	.	.	.	.	.	.	.	.
8G\	-ri-	.	8B-\	-ri-	.	8B-\	-ri-	.	.	.	.	.	.	.	.	.	.	.	.	.	.	.
8G\	-fi-	.	8B-\	-fi-	.	8B-\	-fi-	.	.	.	.	.	.	.	.	.	.	.	.	.	.	.
4F\	-ca-	.	4A-\	-ca-	.	4c\	-ca-	.	.	.	.	.	.	.	2F\	.	2A-\	.	4c/	.	4cc\	.
4F\	-mus	.	4A-\	-mus	.	4d\	-mus	.	.	.	.	.	.	.	.	.	.	.	4d/	.	4dd\	.
!	!	!	!LO:LB:g=original	!	!	!	!	!	!	!	!	!	!	!	!LO:LB:g=original	!	!	!	!LO:LB:g=original	!	!	!
=18	=18	=18	=18	=18	=18	=18	=18	=18	=18	=18	=18	=18	=18	=18	=18	=18	=18	=18	=18	=18	=18	=18
4E-\	te	.	4G/	te	.	4e-\	te	.	.	.	.	.	.	.	2E-\	.	2G\	.	8e-/L	.	8ee-\L	.
.	.	.	.	.	.	.	.	.	.	.	.	.	.	.	.	.	.	.	8g/	.	8gg\	.
4r	.	.	4r	.	.	4r	.	.	.	.	.	.	.	.	.	.	.	.	8b-/	.	8bb-\	.
.	.	.	.	.	.	.	.	.	.	.	.	.	.	.	.	.	.	.	8a-/J	.	8aa-\J	.
2r	.	.	2r	.	.	2r	.	.	.	.	.	.	.	.	2r	.	2r	.	8g/L	.	8gg\L	.
.	.	.	.	.	.	.	.	.	.	.	.	.	.	.	.	.	.	.	8f/	.	8ff\	.
.	.	.	.	.	.	.	.	.	.	.	.	.	.	.	.	.	.	.	8e-/	.	8ee-\	.
.	.	.	.	.	.	.	.	.	.	.	.	.	.	.	.	.	.	.	8d/J	.	8dd\J	.
!	!	!	!	!	!	!	!	!	!	!	!	!	!	!	!	!	!LO:LB:g=original	!	!	!	!	!
=19	=19	=19	=19	=19	=19	=19	=19	=19	=19	=19	=19	=19	=19	=19	=19	=19	=19	=19	=19	=19	=19	=19
4AA-/	te	.	4E-/	te	.	4c\	te	.	4AA-/	.	8c\	.	8e-\	.	8AA-/	.	8A-\	.	8e-/	.	8cc\	.
.	.	.	.	.	.	.	.	.	.	.	8r	.	8r	.	8r	.	8r	.	8r	.	8r	.
4AA-/	glo-	.	4E-^>/	glo-	.	4c^\	glo-	.	4r	.	4c^\	.	4e-^\	.	4AA-^>/	.	4A-^\	.	4e-^>/	.	4cc^\	.
4BB-/	-ri-	.	4A-\	-ri-	.	4d\	-ri-	.	4BB-/	.	8B-\	.	8f\	.	8BB-/	.	8B-\	.	8a-\	.	8dd\	.
.	.	.	.	.	.	.	.	.	.	.	8r	.	8r	.	8r	.	8r	.	8r	.	8r	.
4BB-/	-fi-	.	4A-^\	-fi-	.	4d^\	-fi-	.	4r	.	4B-^\	.	4f^\	.	4BB-^>/	.	4B-^\	.	4a-^\	.	4dd^\	.
!LO:LB:g=original	!	!	!	!	!	!LO:LB:g=original	!	!	!	!	!	!	!	!	!	!	!	!	!	!	!LO:LB:g=original	!
=20	=20	=20	=20	=20	=20	=20	=20	=20	=20	=20	=20	=20	=20	=20	=20	=20	=20	=20	=20	=20	=20	=20
4C/	-ca-	.	4G/	-ca-	.	4e-\	-ca-	.	4C/	.	8e-\	.	8g\	.	8C/	.	8c\	.	8g\	.	8ee-\	.
.	.	.	.	.	.	.	.	.	.	.	8r	.	8r	.	8r	.	8r	.	8r	.	8r	.
4C/	-mus	.	4G^>/	-mus	.	4e-^\	-mus	.	4r	.	4e-^\	.	4g^\	.	4C^>/	.	4c^\	.	4g^\	.	4ee-^\	.
4D\	te	.	4B-\	te	.	4f\	te	.	4D/	.	8B-/	.	8f\	.	8D/	.	8d\	.	8b-\	.	8ff\	.
.	.	.	.	.	.	.	.	.	.	.	8r	.	8r	.	8r	.	8r	.	8r	.	8r	.
4D\	glo-	.	4B-^\	glo-	.	4f^\	glo-	.	4r	.	4B-^>/	.	4f^\	.	4D^>/	.	4d^\	.	4b-^\	.	4ff^\	.
=21	=21	=21	=21	=21	=21	=21	=21	=21	=21	=21	=21	=21	=21	=21	=21	=21	=21	=21	=21	=21	=21	=21
4E-\	-ri-	.	4e-\	-ri-	.	4g\	-ri-	.	4E-\	.	4f\	.	4g\	.	4E-\	.	4e-\	.	4ee-\	.	4gg\	.
4G\	-fi-	.	4B-\	-fi-	.	(>8f\L	-fi-	.	4G\	.	4f\	.	4g\	.	4r	.	4B-\	.	4b-\	.	8ff\L	.
.	.	.	.	.	.	8e-\J)	.	.	.	.	.	.	.	.	.	.	.	.	.	.	8ee-\J	.
4B-\	-ca-	.	4A-\	-ca-	.	(>8e-\L	-ca-	.	4BB-/	.	4B-/	.	4f\	.	4BB-/	.	4A-\	.	4a-\	.	8ee-\L	.
.	.	.	.	.	.	8d\J)	.	.	.	.	.	.	.	.	.	.	.	.	.	.	8dd\	.
4BB-/	-mus	.	4A-\	-mus	.	(>8c\L	-mus	.	4BB-/	.	4B-/	.	4f\	.	4BB-/	.	4A-\	.	4a-\	.	8cc\	.
.	.	.	.	.	.	8d\J)	.	.	.	.	.	.	.	.	.	.	.	.	.	.	8dd\J	.
!	!	!	!LO:LB:g=original	!	!	!	!	!	!LO:LB:g=original	!	!	!	!	!	!	!	!	!	!	!	!	!
=22	=22	=22	=22	=22	=22	=22	=22	=22	=22	=22	=22	=22	=22	=22	=22	=22	=22	=22	=22	=22	=22	=22
2E-\	te	.	2G/	te	.	2e-\	te	.	2E-\	.	2G/	.	2e-\	.	2E-\	.	2G\	.	2g/	.	2ee-\	.
!	!	!	!	!	!	!	!	!	!	!	!LO:TX:a:i:t=andante	!	!	!	!	!	!	!	!	!	!	!
.	.	.	.	.	.	.	.	.	.	.	.	.	.	.	.	.	.	.	.	.	.	.
!LO:TX:a:i:t=Andante	!	!	!LO:TX:a:i:t=Andante	!	!	!LO:TX:a:t=Andan&colon;	!	!	!LO:TX:a:i:t=Andante	!	!	!	!LO:TX:a:i:t=Andante	!	!LO:TX:a:i:t=andante	!	!LO:TX:a:i:t=andante	!	!LO:TX:a:i:t=andante	!	!LO:TX:a:i:t=andante	!
2r	.	.	2r	.	.	4r	.	.	2r	.	2r	.	2r	.	2r	.	2r	.	2r	.	4r	.
!	!	!	!	!	!	!	!	!LO:DY:rj	!	!	!	!	!	!	!	!	!	!	!	!	!	!
!	!	!	!	!	!	!	!	!LO:DY:b	!	!	!	!	!	!	!	!	!	!	!	!	!	!
.	.	.	.	.	.	(>8e-\L	Qui	p	.	.	.	.	.	.	.	.	.	.	.	.	4r	.
.	.	.	.	.	.	8d-X\J)	.	.	.	.	.	.	.	.	.	.	.	.	.	.	.	.
!	!	!	!	!	!	!LO:LB:g=original	!	!	!	!	!	!	!	!	!LO:LB:g=original	!	!	!	!LO:LB:g=original	!	!	!
=23|	=23|	=23|	=23|	=23|	=23|	=23|	=23|	=23|	=23||	=23||	=23||	=23||	=23||	=23||	=23||	=23||	=23||	=23||	=23||	=23||	=23||	=23||
!LO:TX:a:t=7	!	!	!	!	!	!	!	!	!	!	!	!	!	!	!	!	!	!	!	!	!	!
!	!	!	!LO:TX:a:t=7	!	!	!	!	!	!LO:TX:a:t=4.	!	!LO:TX:a:t=3.	!	!	!	!	!	!	!	!	!	!	!
!	!	!	!	!	!	!	!	!	!	!	!	!	!	!LO:DY:b:t=p.	!	!	!	!	!	!	!	!
!	!	!	!	!	!	!	!	!	!	!	!	!	!	!LO:DY:rj	!	!LO:DY:rj	!	!LO:DY:rj	!	!	!	!LO:DY:rj
00r	.	.	00r	.	.	2c\	tol-	.	00r	.	0r	.	[>1e-	p	4A-\	p	4A-\	p	8r	.	8r	p
!	!	!	!	!	!	!	!	!	!	!	!	!	!	!	!	!	!	!	!	!LO:DY:b:t=p.	!	!
!	!	!	!	!	!	!	!	!	!	!	!	!	!	!	!	!	!	!	!	!LO:DY:rj	!	!
.	.	.	.	.	.	.	.	.	.	.	.	.	.	.	.	.	.	.	(>8a-\L	p	(>8cc\L	.
.	.	.	.	.	.	.	.	.	.	.	.	.	.	.	4r	.	4r	.	8g\	.	8bX\	.
.	.	.	.	.	.	.	.	.	.	.	.	.	.	.	.	.	.	.	8a-\J)	.	8cc\J)	.
.	.	.	.	.	.	4d-X\	-lis	.	.	.	.	.	.	.	8A-\	.	8A-\	.	8r	.	8r	.
.	.	.	.	.	.	.	.	.	.	.	.	.	.	.	8r	.	8r	.	8b-\	.	8dd-X\	.
!	!	!	!	!	!	!	!LO:SIC:l:o=pe-	!	!	!	!	!	!	!	!	!	!	!	!	!	!	!
.	.	.	.	.	.	4e-\	pec-	.	.	.	.	.	.	.	8A-\	.	8A-\	.	8r	.	8r	.
.	.	.	.	.	.	.	.	.	.	.	.	.	.	.	8r	.	8r	.	8cc\	.	8ee-\	.
!	!	!	!	!	!	!	!	!	!	!	!	!	!LO:LB:g=original	!	!	!	!LO:LB:g=original	!	!	!	!	!
=24	=24	=24	=24	=24	=24	=24	=24	=24	=24	=24	=24	=24	=24	=24	=24	=24	=24	=24	=24	=24	=24	=24
.	.	.	.	.	.	2e-\	-ca-	.	.	.	.	.	1e-]	.	4E-\	.	4E-\	.	8r	.	8r	.
.	.	.	.	.	.	.	.	.	.	.	.	.	.	.	.	.	.	.	(<8g/L	.	(8ee-\L	.
.	.	.	.	.	.	.	.	.	.	.	.	.	.	.	4r	.	4r	.	8f#X/	.	8ddn\	.
.	.	.	.	.	.	.	.	.	.	.	.	.	.	.	.	.	.	.	8g/J)	.	8ee-\J)	.
.	.	.	.	.	.	4B-\	-ta	.	.	.	.	.	.	.	8E-\	.	8E-\	.	8r	.	8r	.
.	.	.	.	.	.	.	.	.	.	.	.	.	.	.	8r	.	8r	.	8g/	.	8b-\	.
!	!	!	!	!	!	!	!LO:SIC:l:o=pe-	!	!	!	!	!	!	!	!	!	!	!	!	!	!	!
.	.	.	.	.	.	(>8c\L	pec-	.	.	.	.	.	.	.	8En\	.	8En\	.	8a-\L	.	(>8cc\L	.
.	.	.	.	.	.	8B-\J)	.	.	.	.	.	.	.	.	8r	.	8r	.	8g\J	.	8b-\J)	.
!	!	!	!	!	!	!	!	!	!	!	!	!	!	!	!	!	!	!	!	!	!LO:LB:g=original	!
=25	=25	=25	=25	=25	=25	=25	=25	=25	=25	=25	=25	=25	=25	=25	=25	=25	=25	=25	=25	=25	=25	=25
.	.	.	.	.	.	4A-\	-ca-	.	.	.	1r	.	1r	.	4F\	.	4F\	.	8r	.	8r	.
.	.	.	.	.	.	.	.	.	.	.	.	.	.	.	.	.	.	.	(<8f/L	.	(>8a-\L	.
.	.	.	.	.	.	4A-\	-ta	.	.	.	.	.	.	.	4r	.	4r	.	8eX/	.	8g\	.
.	.	.	.	.	.	.	.	.	.	.	.	.	.	.	.	.	.	.	8f/J)	.	8a-\J)	.
!	!	!	!	!	!	!	!	!	!	!	!	!	!LO:TX:a:t=1	!	!	!	!	!	!	!	!	!
.	.	.	.	.	.	(>4F\	mun-	.	.	.	.	.	.	.	8D-X\	.	8D-X\	.	8r	.	8r	.
.	.	.	.	.	.	.	.	.	.	.	.	.	.	.	8r	.	8r	.	8B-/	.	8f\	.
.	.	.	.	.	.	4B-\)	.	.	.	.	.	.	.	.	8Dn\	.	8F\	.	8r	.	8r	.
.	.	.	.	.	.	.	.	.	.	.	.	.	.	.	8r	.	8r	.	8f/	.	8b-\	.
=26	=26	=26	=26	=26	=26	=26	=26	=26	=26	=26	=26	=26	=26	=26	=26	=26	=26	=26	=26	=26	=26	=26
!	!	!	!	!	!	!	!	!	!	!	!	!LO:HP:a	!	!	!	!	!	!	!	!	!	!
!	!	!	!	!	!	!	!	!	!	!	!LO:TX:a:t=P:problem=diminuendolike accent	!	!	!LO:TX:a:t=P:problem=diminuendolike accent	!	!	!	!	!	!	!	!
.	.	.	.	.	.	4E-/	-di	.	.	.	1E-	<	1e-	<	4E-\	.	4G\	.	4e-/	.	8e-\L	.
!	!	!	!	!	!	!	!	!	!	!	!LO:TX:a:t=P:problem=diminuendolike accent	!	!	!LO:TX:a:t=P:problem=diminuendolike accent	!	!	!	!	!	!	!	!
!	!	!	!	!	!	!	!	!	!	!	!	!LO:HP:a	!	!	!	!	!	!	!	!	!	!
.	.	.	.	.	.	.	.	.	.	.	.	[>	.	[>	.	.	.	.	.	.	8g\	.
.	.	.	.	.	.	4r	.	.	.	.	.	]	.	]	4r	.	4r	.	8g/L	.	8b-\	.
.	.	.	.	.	.	.	.	.	.	.	.	.	.	.	.	.	.	.	8a-/J	.	8cc\J	.
.	.	.	.	.	.	2r	.	.	.	.	.	.	.	.	2r	.	2r	.	8b-/L	.	8dd-X\L	.
.	.	.	.	.	.	.	.	.	.	.	.	.	.	.	.	.	.	.	8a-/	.	8ff\	.
.	.	.	.	.	.	.	.	.	.	.	.	.	.	.	.	.	.	.	8g/	.	8ee-\	.
.	.	.	.	.	.	.	.	.	.	.	.	.	.	.	.	.	.	.	8b-/J	.	8dd-\J	.
!	!	!	!	!	!	!LO:LB:g=original	!	!	!	!	!	!	!	!	!	!	!	!	!LO:LB:g=original	!	!	!
=27	=27	=27	=27	=27	=27	=27	=27	=27	=27	=27	=27	=27	=27	=27	=27	=27	=27	=27	=27	=27	=27	=27
0r	.	.	0r	.	.	4c\	mi-	.	4AA-/	.	1r	]	1r	]	4AA-/	.	4r	.	4r	.	4r	.
.	.	.	.	.	.	4c\	-se-	.	4r	.	.	.	.	.	4r	.	4A-\	.	4a-\	.	4cc\	<
!	!	!	!	!	!	!	!	!	!	!	!LO:TX:a:t=1.	!	!LO:TX:a:t=1.	!	!	!	!	!	!	!	!	!
.	.	.	.	.	.	4d-X\	-re-	.	2r	.	.	.	.	.	2r	.	4Gn\	.	4b-\	.	4dd-X\	.
.	.	.	.	.	.	4e-\	-re	.	.	.	.	.	.	.	.	.	4G-X\	.	4cc\	.	4ee-\	[[
!	!	!	!	!	!	!	!	!	!	!	!LO:LB:g=original	!	!	!	!LO:LB:g=original	!	!	!	!	!	!	!
=28	=28	=28	=28	=28	=28	=28	=28	=28	=28	=28	=28	=28	=28	=28	=28	=28	=28	=28	=28	=28	=28	=28
.	.	.	.	.	.	2en\	no-	.	2C/	.	2r	.	2r	.	2C^>/	.	8r	.	8r	.	8r	.
.	.	.	.	.	.	.	.	.	.	.	.	.	.	.	.	.	4.Gn^>\	.	4.cc^\	.	(>8eeX\L	.
.	.	.	.	.	.	.	.	.	.	.	.	.	.	.	.	.	.	.	.	.	8ddn\	.
.	.	.	.	.	.	.	.	.	.	.	.	.	.	.	.	.	.	.	.	.	8ee\J)	.
.	.	.	.	.	.	4f\	-bis	.	8D-X/	.	2d-X\	.	2f\	.	8D-X/	.	8F\	.	8r	.	8r	.
.	.	.	.	.	.	.	.	.	8r	.	.	.	.	.	8r	.	8r	.	8dd-X\	.	8ff\	.
.	.	.	.	.	.	8d-X\	mi-	.	8BB-/	.	.	.	.	.	8BB-/	.	8F\	.	8r	.	8r	.
.	.	.	.	.	.	8B-\	-se-	.	8r	.	.	.	.	.	8r	.	8r	.	8b-\	.	8dd-X\	.
!	!	!	!	!	!	!	!	!	!	!	!	!	!	!	!	!	!LO:LB:g=original	!	!	!	!	!
=29	=29	=29	=29	=29	=29	=29	=29	=29	=29	=29	=29	=29	=29	=29	=29	=29	=29	=29	=29	=29	=29	=29
1r	.	.	1r	.	.	4e-X\	-re-	.	4E-\	.	4r	.	4r	.	4E-\	.	4F\	.	8r	.	8r	.
.	.	.	.	.	.	.	.	.	.	.	.	.	.	.	.	.	.	.	(>8a-\L	.	(>8cc\L	.
.	.	.	.	.	.	(>8c\L	-re	.	4r	.	4c/	.	4e-\	.	4r	.	4r	.	8cc\	.	8ee-\	.
.	.	.	.	.	.	8A-\J)	.	.	.	.	.	.	.	.	.	.	.	.	8a-\J)	.	8cc\J)	.
.	.	.	.	.	.	(<4E-/	no-	.	4E-\	.	4r	.	4r	.	4E-\	.	4d-X\	.	8r	.	8r	.
.	.	.	.	.	.	.	.	.	.	.	.	.	.	.	.	.	.	.	(>8g\L	.	(>8b-\L	.
.	.	.	.	.	.	8F/L	.	.	4r	.	4B-/	.	4e-\	.	4r	.	4r	.	8b-\	.	8dd-X\	.
.	.	.	.	.	.	8G/J)	.	.	.	.	.	.	.	.	.	.	.	.	8g\J)	.	8b-\J)	.
!LO:LB:g=original	!	!	!	!	!	!LO:LB:g=original	!	!	!	!	!	!	!	!	!	!	!	!	!	!	!	!
=30	=30	=30	=30	=30	=30	=30	=30	=30	=30	=30	=30	=30	=30	=30	=30	=30	=30	=30	=30	=30	=30	=30
2r	.	.	2r	.	.	2A-\	-bis	.	4AA-/	.	2c/	.	2e-\	.	2A-\	.	2c\	.	2e-/	.	2a-\	.
!	!	!	!	!	!	!	!	!	!	!	!LO:TX:a:i:t=allegro	!	!LO:TX:a:i:t=allegro	!	!	!	!	!	!	!	!	!
.	.	.	.	.	.	.	.	.	4r	.	.	.	.	.	.	.	.	.	.	.	.	.
!	!	!	!	!	!	!	!	!	!LO:TX:a:i:t=Allegro	!	!	!	!	!	!	!	!	!	!	!	!	!
!LO:TX:a:t=Allegro.	!	!	!LO:TX:a:i:t=Allegro	!	!	!LO:TX:a:i:t=Allegro.	!	!	!	!	!	!	!	!	!	!	!LO:TX:a:i:t=allegro	!	!LO:TX:a:i:t=Allegro	!	!LO:TX:a:i:t=allegro.	!
2r	.	.	2r	.	.	2r	.	.	2r	.	2r	.	2r	.	4r	.	4r	.	4r	.	4r	.
!	!	!	!	!	!	!	!	!	!	!	!	!	!	!	!LO:TX:a:i:t=allegro.	!	!	!	!	!	!	!
.	.	.	.	.	.	.	.	.	.	.	.	.	.	.	8BB-/L	.	8B-\L	.	8B-/L	.	(8b-\L	.
.	.	.	.	.	.	.	.	.	.	.	.	.	.	.	16C/L	.	16c\L	.	16c/L	.	16cc\L	.
.	.	.	.	.	.	.	.	.	.	.	.	.	.	.	16Dn/JJ	.	16dn\JJ	.	16dn/JJ	.	16dd-\JJ)	.
!	!	!	!	!	!	!	!	!	!LO:LB:g=original	!	!	!	!	!	!	!	!	!	!	!	!LO:LB:g=original	!
=31|	=31|	=31|	=31|	=31|	=31|	=31|	=31|	=31|	=31|	=31|	=31||	=31||	=31||	=31||	=31||	=31||	=31||	=31||	=31||	=31||	=31||	=31||
!	!	!LO:DY:b:t=fo&colon;	!	!	!LO:DY:b:t=fo&colon;	!	!	!LO:DY:b	!	!	!	!	!	!	!	!	!	!	!	!	!	!
!	!	!LO:DY:rj	!	!	!LO:DY:rj	!	!	!LO:DY:rj	!	!LO:DY:rj	!	!	!	!	!	!	!	!	!	!	!	!
!	!	!	!	!	!	!	!	!	!	!	!	!LO:DY:rj	!	!LO:DY:rj	!	!LO:DY:rj	!	!LO:DY:rj	!	!LO:DY:rj	!	!LO:DY:rj
!	!LO:SIC:l:o=Com	!	!	!	!	!	!	!	!	!	!	!	!	!	!	!	!	!	!	!	!	!
2e-\	Cum	f	2e-\	Cum	f	2e-\	Cum	f	2E-\	f	2e-\	f	2e-\	f	2E-\	f	2e-\	f	2ee-\	f	2ee-\	f
4B-\	san-	.	4B-\	san-	.	4B-\	san-	.	4BB-/	.	4B-/	.	4B-\	.	4B-\	.	4B-\	.	4b-\	.	4b-\	.
4G\	-cto	.	4G\	-cto	.	4G\	-cto	.	4GG/	.	4G/	.	4G/	.	4G\	.	4G\	.	4g\	.	4g\	.
!	!	!	!	!	!	!	!	!	!	!	!	!	!	!	!	!	!	!	!LO:LB:g=original	!	!	!
=32	=32	=32	=32	=32	=32	=32	=32	=32	=32	=32	=32	=32	=32	=32	=32	=32	=32	=32	=32	=32	=32	=32
8E-\	spi-	.	8E-/	spi-	.	8E-/	spi-	.	4EE-/	.	4E-/	.	4E-/	.	4EE-/	.	4F\	.	4e-\	.	4e-\	.
8E-\	-ri-	.	8E-/	-ri-	.	8E-/	-ri-	.	.	.	.	.	.	.	.	.	.	.	.	.	.	.
8G\	-tu	.	8G/	-tu	.	8G/	-tu	.	4E-\	.	4G/	.	4e-\	.	4E-\	.	4B-\	.	4g\	.	4g\	.
8G\	in	.	8G/	in	.	8G/	in	.	.	.	.	.	.	.	.	.	.	.	.	.	.	.
4B-\	glo-	.	4B-\	glo-	.	4B-\	glo-	.	4E-\	.	4G/	.	4e-\	.	4E-\	.	4B-\	.	4b-\	.	4b-\	.
8E-\	-ri-	.	8e-\	-ri-	.	8e-\	-ri-	.	4E-\	.	4G/	.	4e-\	.	4E-\	.	4B-\	.	4ee-\	.	4ee-\	.
8E-\	-a	.	8e-\	-a	.	8e-\	-a	.	.	.	.	.	.	.	.	.	.	.	.	.	.	.
!LO:LB:g=original	!	!	!LO:LB:g=original	!	!	!LO:LB:g=original	!	!	!	!	!	!	!	!	!	!	!	!	!	!	!	!
!	!	!	!	!	!	!	!	!	!	!	!	!	!LO:LB:g=original	!	!	!	!	!	!	!	!	!
=33	=33	=33	=33	=33	=33	=33	=33	=33	=33	=33	=33	=33	=33	=33	=33	=33	=33	=33	=33	=33	=33	=33
4D\	De-	.	4d\	De-	.	4d\	De-	.	4BB-/	.	4B-/	.	4f\	.	4B-\	.	4d\	.	4b-\	.	4dd\	.
4BB-/	-i	.	4B-\	-i	.	4B-\	-i	.	8BB-/	.	8B-/	.	8f\	.	8B-\	.	8B-\L	.	8B-/L	.	8b-\L	.
.	.	.	.	.	.	.	.	.	8r	.	8r	.	8r	.	8r	.	8An\J	.	8A/J	.	8a\J	.
2r	.	.	2r	.	.	2r	.	.	2r	.	2r	.	2r	.	2r	.	8B-\L	.	8B-/L	.	8b-\L	.
.	.	.	.	.	.	.	.	.	.	.	.	.	.	.	.	.	8c\	.	8c/	.	8cc\	.
.	.	.	.	.	.	.	.	.	.	.	.	.	.	.	.	.	8d\	.	8d/	.	8dd\	.
.	.	.	.	.	.	.	.	.	.	.	.	.	.	.	.	.	8e-\J	.	8e-/J	.	8ee-\J	.
!	!	!	!	!	!	!	!	!	!	!	!	!	!	!	!LO:LB:g=original	!	!	!	!	!	!	!
=34	=34	=34	=34	=34	=34	=34	=34	=34	=34	=34	=34	=34	=34	=34	=34	=34	=34	=34	=34	=34	=34	=34
2F\	Cum	.	2f\	Cum	.	2f\	Cum	.	2F\	.	2f\	.	2f\	.	2F\	.	2f\	.	2f/	.	2ff\	.
4D\	san-	.	4d\	san-	.	4d\	san-	.	4D\	.	4d\	.	4d\	.	4d\	.	4d\	.	4dd\	.	4dd\	.
4BB-/	-cto	.	4B-\	-cto	.	4B-\	-cto	.	4BB-/	.	4B-\	.	4B-\	.	4B-\	.	4B-\	.	4b-\	.	4b-\	.
!	!	!	!	!	!	!	!	!	!	!	!LO:LB:g=original	!	!	!	!	!	!LO:LB:g=original	!	!	!	!	!
=35	=35	=35	=35	=35	=35	=35	=35	=35	=35	=35	=35	=35	=35	=35	=35	=35	=35	=35	=35	=35	=35	=35
8A-\	spi-	.	8A-\	spi-	.	8A-\	spi-	.	4AA-/	.	4B-/	.	4f\	.	4A-\	.	4d\	.	4a-\	.	4a-\	.
8A-\	-ri-	.	8A-\	-ri-	.	8A-\	-ri-	.	.	.	.	.	.	.	.	.	.	.	.	.	.	.
8F\	-tu	.	8F/	-tu	.	8F/	-tu	.	4AA-/	.	4B-/	.	4f\	.	4A-\	.	4d\	.	4f\	.	4f\	.
8F\	in	.	8F/	in	.	8F/	in	.	.	.	.	.	.	.	.	.	.	.	.	.	.	.
4A-\	glo-	.	4A-\	glo-	.	4A-\	glo-	.	4AA-/	.	4B-/	.	4f\	.	4A-\	.	4d\	.	4cc\	.	4cc\	.
8c\	-ri-	.	8c\	-ri-	.	8c\	-ri-	.	4AA-/	.	4B-/	.	4f\	.	4A-\	.	4d\	.	4b-\	.	4b-\	.
8B-\	-a	.	8B-\	-a	.	8B-\	-a	.	.	.	.	.	.	.	.	.	.	.	.	.	.	.
!LO:LB:g=original	!	!	!LO:LB:g=original	!	!	!LO:LB:g=original	!	!	!LO:LB:g=original	!	!	!	!	!	!	!	!	!	!	!	!	!
=36	=36	=36	=36	=36	=36	=36	=36	=36	=36	=36	=36	=36	=36	=36	=36	=36	=36	=36	=36	=36	=36	=36
4G\	De-	.	4B-\	De-	.	4B-\	De-	.	4E-\	.	4G/	.	4e-\	.	4G\	.	4e-\	.	4g/	.	4b-\	.
4E-\	-i	.	4G\	-i	.	4G\	-i	.	4E-\	.	4G/	.	4e-\	.	4E-\	.	4B-\	.	4e-/	.	4g\	.
4r	.	.	4r	.	.	4r	.	.	4r	.	2r	.	2r	.	4r	.	4r	.	4r	.	4r	.
8E-\	De-	.	8G/	De-	.	8e-\	De-	.	4E-\	.	.	.	.	.	4E-\	.	4e-\	.	4g/	.	8ee-\L	.
8E-\	-i	.	8G/	-i	.	8d\	-i	.	.	.	.	.	.	.	.	.	.	.	.	.	8dd\J	.
=37	=37	=37	=37	=37	=37	=37	=37	=37	=37	=37	=37	=37	=37	=37	=37	=37	=37	=37	=37	=37	=37	=37
4AA-/	pa-	.	4E-/	Pa-	.	4c\	pa-	.	4AA-/	.	4c/	.	4e-\	.	4AA-/	.	4A-\	.	4e-/	.	4cc\	.
4AA-/	-tris	.	4E-/	-tris	.	4c\	-tris	.	4r	.	4c/	.	4e-\	.	4AA-/	.	4A-\	.	4e-/	.	4cc\	.
4BB-/	a-	.	4A-\	a-	.	4d\	a-	.	4BB-/	.	4B-/	.	4f\	.	4BB-/	.	4B-\	.	4a-\	.	4dd\	.
4BB-/	-men	.	4A-\	-men	.	4d\	-men	.	4r	.	4B-/	.	4f\	.	4BB-/	.	4B-\	.	4a-\	.	4dd\	.
!	!	!	!	!	!	!	!	!	!	!	!	!	!	!	!	!	!	!	!LO:LB:g=original	!	!	!
=38	=38	=38	=38	=38	=38	=38	=38	=38	=38	=38	=38	=38	=38	=38	=38	=38	=38	=38	=38	=38	=38	=38
4C/	De-	.	4G\	De-	.	4e-\	De-	.	4C\	.	4e-\	.	4g\	.	4C\	.	4c\	.	4g\	.	4ee-\	.
4C/	-i	.	4G\	-i	.	4e-\	-i	.	4r	.	4e-\	.	4g\	.	4C\	.	4c\	.	4g\	.	4ee-\	.
4D\	pa-	.	4B-\	pa-	.	4f\	pa-	.	4D\	.	4B-/	.	4f\	.	4D\	.	4d\	.	4b-\	.	4ff\	.
4D\	-tris	.	4B-\	-tris	.	4f\	-tris	.	4r	.	4B-/	.	4f\	.	4D\	.	4d\	.	4b-\	.	4ff\	.
!LO:LB:g=original	!	!	!LO:LB:g=original	!	!	!LO:LB:g=original	!	!	!	!	!	!	!	!	!	!	!	!	!	!	!	!
=39	=39	=39	=39	=39	=39	=39	=39	=39	=39	=39	=39	=39	=39	=39	=39	=39	=39	=39	=39	=39	=39	=39
*	*	*	*	*	*	*	*	*	*	*	*	*	*	*	*	*	*	*	*tremolo	*	*	*
!	!	!	!	!	!	!	!	!	!	!	!	!	!	!	!	!	!	!	!LO:TX:a:t=P:problem=laski półnut po prawej stronie	!	!	!
4E-\	a-	.	4B-\	a-	.	4g\	a-	.	4E-\	.	4r	.	4r	.	4E-\	.	4e-\	.	8g\L	.	4gg\	.
.	.	.	.	.	.	.	.	.	.	.	.	.	.	.	.	.	.	.	8b-\	.	.	.
4G\	-men	.	4B-\	-men	.	4e-\	-men	.	4r	.	4G/	.	4e-\	.	4r	.	4B-\	.	8g\	.	4ee-\	.
.	.	.	.	.	.	.	.	.	.	.	.	.	.	.	.	.	.	.	8b-J\	.	.	.
!	!	!	!	!	!	!	!	!	!	!	!	!	!	!	!	!	!	!	!LO:TX:a:t=P:problem=laski półnut po prawej stronie	!	!	!
4B-\	a-	.	4A-\	a-	.	4B-\	a-	.	2BB-/	.	4r	.	4r	.	2BB-/	.	4r	.	8a-\L	.	4b-\	.
.	.	.	.	.	.	.	.	.	.	.	.	.	.	.	.	.	.	.	8b-\	.	.	.
4BB-/	-men	.	4A-\	-men	.	4d\	-men	.	.	.	4B-/	.	4f\	.	.	.	4F\	.	8a-\	.	4dd\	.
.	.	.	.	.	.	.	.	.	.	.	.	.	.	.	.	.	.	.	8b-\J	.	.	.
!	!	!	!	!	!	!	!	!	!	!	!	!	!LO:LB:g=original	!	!LO:LB:g=original	!	!	!	!	!	!	!
=40	=40	=40	=40	=40	=40	=40	=40	=40	=40	=40	=40	=40	=40	=40	=40	=40	=40	=40	=40	=40	=40	=40
*	*	*	*	*	*	*	*	*	*	*	*	*	*	*	*	*	*	*	*tremolo	*	*	*
!	!	!	!	!	!	!	!	!	!	!	!	!	!	!	!	!	!	!	!LO:TX:a:t=P:problem=laski półnut po prawej stronie	!	!	!
4E-\	a-	.	4G/	a-	.	4e-\	a-	.	[<1EE-	.	1G	.	1e-	.	1E-	.	1B-	.	(>8g\L	.	8ee-\L	.
.	.	.	.	.	.	.	.	.	.	.	.	.	.	.	.	.	.	.	8b-\	.	8gg\	.
4E-\	-men	.	4G/	-men	.	4e-\	-men	.	.	.	.	.	.	.	.	.	.	.	8g\	.	8bb-\	.
.	.	.	.	.	.	.	.	.	.	.	.	.	.	.	.	.	.	.	8b-\J)	.	8gg\J	.
*	*	*	*	*	*	*	*	*	*	*	*	*	*	*	*	*	*	*	*Xtremolo	*	*	*
*	*	*	*	*	*	*	*	*	*	*	*	*	*	*	*	*	*	*	*rep	*	*	*
4E-\	a-	.	4G/	a-	.	4e-\	a-	.	.	.	.	.	.	.	.	.	.	.	8g\L	.	8ee-\L	.
.	.	.	.	.	.	.	.	.	.	.	.	.	.	.	.	.	.	.	8b-\	.	8gg\	.
4E-\	-men	.	4G/	-men	.	4e-\	-men	.	.	.	.	.	.	.	.	.	.	.	8g\	.	8ee-\	.
.	.	.	.	.	.	.	.	.	.	.	.	.	.	.	.	.	.	.	8b-\J	.	8b-\J	.
*	*	*	*	*	*	*	*	*	*	*	*	*	*	*	*	*	*	*	*Xrep	*	*	*
=41	=41	=41	=41	=41	=41	=41	=41	=41	=41	=41	=41	=41	=41	=41	=41	=41	=41	=41	=41	=41	=41	=41
*	*	*	*	*	*	*	*	*	*	*	*	*	*	*	*	*	*	*	*tremolo	*	*	*
4E-\	a-	.	4G/	a-	.	4B-\	a-	.	1EE-]	.	2G/	.	2B-/	.	2BB-/	.	2G\	.	(>8e-/L	.	8g\L	.
.	.	.	.	.	.	.	.	.	.	.	.	.	.	.	.	.	.	.	8g/	.	8b-\	.
4E-\	-men	.	4G/	-men	.	4B-\	-men	.	.	.	.	.	.	.	.	.	.	.	8e-/	.	8ee-\	.
.	.	.	.	.	.	.	.	.	.	.	.	.	.	.	.	.	.	.	8g/J)	.	8b-\J	.
4E-\	a-	.	4E-/	a-	.	4G\	a-	.	.	.	2E-/	.	2G/	.	2GG/	.	2E-\	.	(>8B-/L	.	8g\L	.
.	.	.	.	.	.	.	.	.	.	.	.	.	.	.	.	.	.	.	8e-/	.	8b-\	.
4E-\	-men	.	4G/	-men	.	4B-\	-men	.	.	.	.	.	.	.	.	.	.	.	8B-/	.	8g\	.
.	.	.	.	.	.	.	.	.	.	.	.	.	.	.	.	.	.	.	8e-/J)	.	8e-\J	.
*	*	*	*	*	*	*	*	*	*	*	*	*	*	*	*	*	*	*	*Xtremolo	*	*	*
!LO:LB:g=original	!	!	!LO:LB:g=original	!	!	!LO:LB:g=original	!	!	!LO:LB:g=original	!	!	!	!	!	!	!	!	!	!	!	!	!
!	!	!	!	!	!	!	!	!	!	!	!	!	!	!	!	!	!LO:LB:g=original	!	!	!	!	!
=42	=42	=42	=42	=42	=42	=42	=42	=42	=42	=42	=42	=42	=42	=42	=42	=42	=42	=42	=42	=42	=42	=42
(>4E-\	a-	.	(>4G/	a-	.	(>4e-\	a-	.	4EE-/	.	4BB-/	.	4E-/	.	4EE-/	.	4EE-/	.	4G/	.	4B-/	.
4BB-/)	.	.	4A-\)	.	.	4d\)	.	.	4BB-/	.	4B-/	.	4f\	.	4BB-/	.	4F\	.	4a-\	.	4dd\	.
4E-\	-men	.	4G\	-men	.	4e-\	-men	.	4E-\	.	4e-\	.	4g\	.	4E-\	.	4G\	.	4g\	.	4ee-\	.
4BB-/	a-	.	4A-\	a-	.	4d\	a-	.	4BB-/	.	4B-/	.	4f\	.	4BB-/	.	4A-\	.	4a-\	.	4dd\	.
!	!	!	!	!	!	!	!	!	!	!	!LO:LB:g=original	!	!	!	!	!	!	!	!LO:LB:g=original	!	!	!
=43	=43	=43	=43	=43	=43	=43	=43	=43	=43	=43	=43	=43	=43	=43	=43	=43	=43	=43	=43	=43	=43	=43
4E-\	-men	.	4G\	-men	.	4e-\	-men	.	4E-\	.	4e-\	.	4g\	.	4E-\	.	4G\	.	4g\	.	4ee-\	.
4BB-/	a-	.	4A-\	a-	.	4d\	a-	.	4BB-/	.	4B-/	.	4f\	.	4BB-\	.	4F\	.	4a-\	.	4dd\	.
4E-\	-men	.	4G\	-men	.	4e-\	-men	.	4E-\	.	4e-\	.	4g\	.	4E-\	.	4G\	.	4g\	.	4ee-\	.
4BB-/	a-	.	4A-\	a-	.	4d\	a-	.	4BB-/	.	4B-/	.	4f\	.	4BB-\	.	4A-\	.	4a-\	.	4dd\	.
=44	=44	=44	=44	=44	=44	=44	=44	=44	=44	=44	=44	=44	=44	=44	=44	=44	=44	=44	=44	=44	=44	=44
4E-\	-men	.	4G\	-men	.	4e-\	-men	.	4E-\	.	4G/	.	4e-\	.	4E-\	.	4G\	.	4g\	.	4ee-\	.
4r	.	.	4r	.	.	4r	.	.	4r	.	4r	.	4r	.	4r	.	4r	.	4r	.	4r	.
2r	.	.	2r	.	.	2r	.	.	4E-\	.	4G/	.	4e-\	.	4E-\	.	4B-\	.	4b-\	.	4gg\	.
.	.	.	.	.	.	.	.	.	4r	.	4r	.	4r	.	4r	.	4r	.	4r	.	4r	.
=45	=45	=45	=45	=45	=45	=45	=45	=45	=45	=45	=45	=45	=45	=45	=45	=45	=45	=45	=45	=45	=45	=45
!LO:TX:a:t=P:problem=nie wyświetla się fermata nad pauzą	!	!	!LO:TX:a:t=P:problem=nie wyświetla się fermata nad pauzą	!	!	!LO:TX:a:t=P:problem=nie wyświetla się fermata nad pauzą	!	!	!	!	!	!	!	!	!	!	!	!	!	!	!	!
1r;	.	.	1r;	.	.	1r;	.	.	2.E-;\	.	2.G;/	.	2.e-;\	.	2.E-;\	.	2.B-;\	.	2.g;/	.	2.ee-;\	.
!LO:TX:a:t=1	!	!	!LO:TX:a:t=1	!	!	!LO:TX:a:t=1	!	!	!	!	!	!	!	!	!	!	!	!	!	!	!	!
.	.	.	.	.	.	.	.	.	4r	.	4r	.	4r	.	4r	.	4r	.	4r	.	4r	.
==;;	==	==	==;;	==	==	==;;	==	==	==;;	==	==;;	==	==;;	==	==;;	==	==;;	==	==;;	==	==;;	==
*-	*-	*-	*-	*-	*-	*-	*-	*-	*-	*-	*-	*-	*-	*-	*-	*-	*-	*-	*-	*-	*-	*-
!!!system-decoration: [g1][g2][g3]
!!!RDF**kern: > = above
!!!RDF**kern: < = below
!!!EED: Antoni Szymański
!!!EEV: 2020-12-27
!!!ENC: Marcin Jachim
!!!END: 2020-07-01
